Sweet-Rainbow/icons/com.github.johnfactotum.Foliate.svg

<?xml version="1.0" encoding="UTF-8" standalone="no"?>
<!-- Generator: Gravit.io -->

<svg
   xmlns:dc="http://purl.org/dc/elements/1.1/"
   xmlns:cc="http://creativecommons.org/ns#"
   xmlns:rdf="http://www.w3.org/1999/02/22-rdf-syntax-ns#"
   xmlns:svg="http://www.w3.org/2000/svg"
   xmlns="http://www.w3.org/2000/svg"
   xmlns:sodipodi="http://sodipodi.sourceforge.net/DTD/sodipodi-0.dtd"
   xmlns:inkscape="http://www.inkscape.org/namespaces/inkscape"
   style="isolation:isolate"
   viewBox="0 0 36 36"
   width="48"
   height="48"
   version="1.1"
   id="svg9"
   sodipodi:docname="com.github.johnfactotum.Foliate.svg"
   inkscape:version="0.92.4 (5da689c313, 2019-01-14)">
  <metadata
     id="metadata15">
    <rdf:RDF>
      <cc:Work
         rdf:about="">
        <dc:format>image/svg+xml</dc:format>
        <dc:type
           rdf:resource="http://purl.org/dc/dcmitype/StillImage" />
        <dc:title></dc:title>
      </cc:Work>
    </rdf:RDF>
  </metadata>
  <defs
     id="defs13" />
  <sodipodi:namedview
     pagecolor="#ffffff"
     bordercolor="#666666"
     borderopacity="1"
     objecttolerance="10"
     gridtolerance="10"
     guidetolerance="10"
     inkscape:pageopacity="0"
     inkscape:pageshadow="2"
     inkscape:window-width="640"
     inkscape:window-height="480"
     id="namedview11"
     showgrid="false"
     inkscape:zoom="29.365243"
     inkscape:cx="25.325443"
     inkscape:cy="32"
     inkscape:current-layer="svg9"
     units="px" />
  <linearGradient
     id="_lgradient_16"
     x1="0.18336116"
     y1="0.24917752"
     x2="0.9027437"
     y2="0.90347725"
     gradientTransform="matrix(42.248,0,0,46,2.876,1)"
     gradientUnits="userSpaceOnUse">
    <stop
       offset="2.608695652173913%"
       stop-opacity="1"
       style="stop-color:rgb(179,255,171)"
       id="stop2" />
    <stop
       offset="98.69565217391305%"
       stop-opacity="1"
       style="stop-color:rgb(18,255,247)"
       id="stop4" />
  </linearGradient>
  <g
     id="g826"
     transform="matrix(0.7826087,0,0,0.7826087,-0.78264134,-0.7826088)">
    <path
       id="path7"
       d="m 14.376,5 h 5 v 13.38 l -1.793,-1.793 c -0.39,-0.39 -1.024,-0.39 -1.414,0 l -1.793,1.793 z m -3,30 h -3.5 c -0.343,0 -0.677,0.034 -1,0.1 V 8 c 0,-1.656 1.344,-3 3,-3 h 1.5 v 0 17.62 c 0,1.656 0.95,2.049 2.121,0.879 l 3.379,-3.379 3.379,3.379 c 1.17,1.17 2.121,0.777 2.121,-0.879 V 5 h 11.5 c 1.656,0 3,1.344 3,3 v 12 0 c 0,1.104 0.896,2 2,2 v 0 c 1.104,0 2,-0.896 2,-2 V 20 6 c 0,-2.76 -2.241,-5 -5,-5 h -28 c -2.76,0 -5,2.24 -5,5 v 33 1 1 1 c 0,2.76 2.24,5 5,5 h 16 v 0 c 1.104,0 2,-0.896 2,-2 v 0 c 0,-1.104 -0.896,-2 -2,-2 v 0 h -15 c -1.104,0 -2,-0.896 -2,-2 v 0 0 c 0,-1.104 0.896,-2 2,-2 h 11 c 1.104,0 2,-0.896 2,-2 v 0 c 0,-1.104 -0.896,-2 -2,-2 h -5.5 v -5 0 c 0,-0.828 -0.672,-1.5 -1.5,-1.5 v 0 c -0.828,0 -1.5,0.672 -1.5,1.5 v 0 z m 26.768,7.247 C 37.322,41.438 36.526,40.59 35.769,39.703 35.143,38.959 34.595,38.15 34.113,37.302 33.617,36.428 33.239,35.489 33.004,34.511 v 0 c -0.18,-0.699 0.241,-1.409 0.939,-1.585 v 0 c 0.698,-0.177 1.412,0.247 1.592,0.946 v 0 c 0.182,0.756 0.469,1.474 0.848,2.152 0.404,0.704 0.861,1.383 1.382,2.009 1.031,1.2 2.14,2.335 3.327,3.392 0.013,0 0.013,0.013 0.026,0.013 l 0.157,0.143 c 0.287,0.274 0.443,0.653 0.417,1.044 -0.026,0.405 -0.222,0.757 -0.548,0.992 -1.422,0.991 -3.105,1.552 -4.84,1.591 -0.835,-0.013 -1.657,-0.13 -2.452,-0.391 -0.9,-0.287 -1.761,-0.692 -2.557,-1.2 -0.966,-0.705 -1.853,-1.501 -2.675,-2.375 -0.73,-0.796 -1.382,-1.657 -1.93,-2.583 -1.018,-1.761 -1.566,-3.757 -1.566,-5.792 0.013,-1.709 0.352,-3.405 0.992,-5.01 0.73,-1.813 1.696,-3.535 2.857,-5.113 0.326,-0.457 0.848,-0.731 1.396,-0.744 0.547,0.013 1.056,0.274 1.369,0.704 1.057,1.344 2.322,2.505 3.744,3.445 1.396,0.9 2.844,1.695 4.345,2.4 0.808,0.378 1.552,0.848 2.243,1.396 0.679,0.548 1.253,1.2 1.722,1.931 0.47,0.782 0.822,1.643 1.018,2.543 0.222,1.044 0.326,2.101 0.313,3.157 0,0.666 -0.039,1.331 -0.091,1.983 v 0 c -0.058,0.72 -0.686,1.255 -1.403,1.194 v 0 c -0.716,-0.061 -1.251,-0.69 -1.193,-1.402 v 0 c 0.052,-0.6 0.078,-1.201 0.078,-1.801 0.013,-0.861 -0.078,-1.722 -0.261,-2.57 -0.13,-0.613 -0.365,-1.2 -0.691,-1.735 -0.3,-0.482 -0.679,-0.913 -1.122,-1.265 -0.522,-0.418 -1.109,-0.77 -1.722,-1.07 -1.605,-0.756 -3.17,-1.618 -4.658,-2.583 -1.343,-0.874 -2.557,-1.931 -3.626,-3.118 -0.744,1.135 -1.383,2.361 -1.892,3.627 -0.522,1.291 -0.796,2.661 -0.809,4.044 0,1.566 0.431,3.105 1.214,4.462 0.443,0.756 0.978,1.474 1.578,2.113 0.691,0.731 1.448,1.409 2.257,2.009 0.574,0.365 1.2,0.665 1.852,0.874 0.535,0.157 1.083,0.248 1.644,0.248 0.639,-0.013 1.266,-0.13 1.866,-0.339 z"
       style="fill:url(#_lgradient_16);fill-rule:evenodd"
       inkscape:connector-curvature="0" />
  </g>
</svg>

<?xml version="1.0" encoding="UTF-8" standalone="no"?><!-- Generator: Gravit.io --><svg xmlns="http://www.w3.org/2000/svg" xmlns:xlink="http://www.w3.org/1999/xlink" style="isolation:isolate" viewBox="0 0 48 48" width="48pt" height="48pt"><linearGradient id="_lgradient_16" x1="0.18336115895060273" y1="0.24917751794896525" x2="0.9027436828643176" y2="0.9034772483231972" gradientTransform="matrix(42.248,0,0,46,2.876,1)" gradientUnits="userSpaceOnUse"><stop offset="2.608695652173913%" stop-opacity="1" style="stop-color:rgb(179,255,171)"/><stop offset="98.69565217391305%" stop-opacity="1" style="stop-color:rgb(18,255,247)"/></linearGradient><path d=" M 14.376 5 L 19.376 5 L 19.376 18.38 L 17.583 16.587 C 17.193 16.197 16.559 16.197 16.169 16.587 L 14.376 18.38 L 14.376 5 L 14.376 5 L 14.376 5 Z  M 11.376 35 L 7.876 35 C 7.533 35 7.199 35.034 6.876 35.1 L 6.876 8 C 6.876 6.344 8.22 5 9.876 5 L 11.376 5 L 11.376 5 L 11.376 22.62 C 11.376 24.276 12.326 24.669 13.497 23.499 L 16.876 20.12 L 20.255 23.499 C 21.425 24.669 22.376 24.276 22.376 22.62 L 22.376 5 L 33.876 5 C 35.532 5 36.876 6.344 36.876 8 L 36.876 20 L 36.876 20 C 36.876 21.104 37.772 22 38.876 22 L 38.876 22 C 39.98 22 40.876 21.104 40.876 20 L 40.876 20 L 40.876 6 C 40.876 3.24 38.635 1 35.876 1 L 7.876 1 C 5.116 1 2.876 3.24 2.876 6 L 2.876 39 L 2.876 40 L 2.876 41 L 2.876 42 C 2.876 44.76 5.116 47 7.876 47 L 23.876 47 L 23.876 47 C 24.98 47 25.876 46.104 25.876 45 L 25.876 45 C 25.876 43.896 24.98 43 23.876 43 L 23.876 43 L 8.876 43 C 7.772 43 6.876 42.104 6.876 41 L 6.876 41 L 6.876 41 C 6.876 39.896 7.772 39 8.876 39 L 19.876 39 C 20.98 39 21.876 38.104 21.876 37 L 21.876 37 C 21.876 35.896 20.98 35 19.876 35 L 14.376 35 L 14.376 30 L 14.376 30 C 14.376 29.172 13.704 28.5 12.876 28.5 L 12.876 28.5 C 12.048 28.5 11.376 29.172 11.376 30 L 11.376 30 L 11.376 35 L 11.376 35 Z  M 38.144 42.247 C 37.322 41.438 36.526 40.59 35.769 39.703 C 35.143 38.959 34.595 38.15 34.113 37.302 C 33.617 36.428 33.239 35.489 33.004 34.511 L 33.004 34.511 C 32.824 33.812 33.245 33.102 33.943 32.926 L 33.943 32.926 C 34.641 32.749 35.355 33.173 35.535 33.872 L 35.535 33.872 C 35.717 34.628 36.004 35.346 36.383 36.024 C 36.787 36.728 37.244 37.407 37.765 38.033 C 38.796 39.233 39.905 40.368 41.092 41.425 C 41.105 41.425 41.105 41.438 41.118 41.438 L 41.275 41.581 C 41.562 41.855 41.718 42.234 41.692 42.625 C 41.666 43.03 41.47 43.382 41.144 43.617 C 39.722 44.608 38.039 45.169 36.304 45.208 C 35.469 45.195 34.647 45.078 33.852 44.817 C 32.952 44.53 32.091 44.125 31.295 43.617 C 30.329 42.912 29.442 42.116 28.62 41.242 C 27.89 40.446 27.238 39.585 26.69 38.659 C 25.672 36.898 25.124 34.902 25.124 32.867 C 25.137 31.158 25.476 29.462 26.116 27.857 C 26.846 26.044 27.812 24.322 28.973 22.744 C 29.299 22.287 29.821 22.013 30.369 22 C 30.916 22.013 31.425 22.274 31.738 22.704 C 32.795 24.048 34.06 25.209 35.482 26.149 C 36.878 27.049 38.326 27.844 39.827 28.549 C 40.635 28.927 41.379 29.397 42.07 29.945 C 42.749 30.493 43.323 31.145 43.792 31.876 C 44.262 32.658 44.614 33.519 44.81 34.419 C 45.032 35.463 45.136 36.52 45.123 37.576 C 45.123 38.242 45.084 38.907 45.032 39.559 L 45.032 39.559 C 44.974 40.279 44.346 40.814 43.629 40.753 L 43.629 40.753 C 42.913 40.692 42.378 40.063 42.436 39.351 L 42.436 39.351 C 42.488 38.751 42.514 38.15 42.514 37.55 C 42.527 36.689 42.436 35.828 42.253 34.98 C 42.123 34.367 41.888 33.78 41.562 33.245 C 41.262 32.763 40.883 32.332 40.44 31.98 C 39.918 31.562 39.331 31.21 38.718 30.91 C 37.113 30.154 35.548 29.292 34.06 28.327 C 32.717 27.453 31.503 26.396 30.434 25.209 C 29.69 26.344 29.051 27.57 28.542 28.836 C 28.02 30.127 27.746 31.497 27.733 32.88 C 27.733 34.446 28.164 35.985 28.947 37.342 C 29.39 38.098 29.925 38.816 30.525 39.455 C 31.216 40.186 31.973 40.864 32.782 41.464 C 33.356 41.829 33.982 42.129 34.634 42.338 C 35.169 42.495 35.717 42.586 36.278 42.586 C 36.917 42.573 37.544 42.456 38.144 42.247 Z " fill-rule="evenodd" fill="url(#_lgradient_16)"/></svg>
